X: 21973
T: Kitty Maginnis
R: waltz
M: 3/4
K: Gmajor
|:EG|A2BAGE|G2G2g2|e2gedB|d4BA|G2E2g2|
a2a2ga|b2a2ge|e4ef|g2fgab|a2bagf|
g2agfe|d2B2d2|efg2G2|B2dBAB|G2E2AB|A4:|
|:EG|A2BAGE|G2G2g2|e2gedB|d4BA|G2E2AB|
A2A2g2|b2a2ge|e4ef|g2agfe|edB2AG|
A2A2Bd|e4ef|edefg2|g2aged|e2g2a2|
b4ag|efg2G2|B2dBAB|G2E2AB|A4:|

